; generated by AnycubicSlicer 1.0.0 on 2024-01-06 at 10:16:37 UTC

; 

; external perimeters extrusion width = 0.45mm
; perimeters extrusion width = 0.40mm
; infill extrusion width = 0.45mm
; solid infill extrusion width = 0.50mm
; top infill extrusion width = 0.45mm
; support material extrusion width = 0.42mm
; first layer extrusion width = 0.56mm

M73 P0 R39
M201 X2500 Y2500 Z800 E2500 ; sets maximum accelerations, mm/sec^2
M203 X300 Y250 Z8 E80 ; sets maximum feedrates, mm / sec
M204 P2500 R2500 T2500 ; sets acceleration (P, T) and retract acceleration (R), mm/sec^2
M205 X15.00 Y10.00 Z2.00 E10.00 ; sets the jerk limits, mm/sec
M205 S0 T0 ; sets the minimum extruding and travel feed rate, mm/sec
M107
;TYPE:Custom
G90 ; use absolute coordinates
M83 ; extruder relative mode
M104 S215 ; set extruder temp
M140 S60 ; set bed temp
M190 S60 ; wait for bed temp
M109 S215 ; wait for extruder temp
G28                                        ; move X/Y/Z to min endstops
G1 Z0.28                                   ; lift nozzle a bit 
G92 E0 
G1 Y3 F1800                                    ; zero the extruded length 
G1 X60  E25 F500                       ; Extrude 25mm of filament in a 5cm line. 
G92 E0                                     ; zero the extruded length again 
G1 E-2 F500                                ; Retract a little 
G1 X70 F4000                              ; Quickly wipe away from the filament line
M117
G21 ; set units to millimeters
G90 ; use absolute coordinates
M82 ; use absolute distances for extrusion
G92 E0
M900 K0.05 ; Filament gcode LA 1.5
M900 K30 ; Filament gcode LA 1.0
M107
;LAYER_CHANGE
;Z:0.28
;HEIGHT:0.28
; BEFORE_LAYER_CHANGE 0 @ 0.28mm
G1 E-2 F4800
G92 E0
G1 Z.28 F7200
; AFTER_LAYER_CHANGE 0 @ 0.28mm
G1 X83.062 Y100.98
G1 E2 F4800
M204 S2000
;TYPE:Skirt/Brim
;WIDTH:0.56
G1 F3000
G1 X83.843 Y100.534 E2.05234
G1 X84.631 Y100.358 E2.09933
G1 X85.772 Y100.365 E2.16573
G1 X86.611 Y100.575 E2.21606
G1 X87.03 Y100.794 E2.24357
G1 X87.417 Y101.082 E2.27164
G1 X88.748 Y102.695 E2.39334
G1 X89.206 Y103.609 E2.45283
G1 X89.494 Y104.468 E2.50555
G1 X89.531 Y104.699 E2.51916
G1 X89.992 Y105.732 E2.58499
G1 X90.551 Y106.52 E2.64121
G1 X90.798 Y107.002 E2.67273
G1 X91.012 Y107.479 E2.70315
G1 X91.311 Y107.956 E2.73591
G1 X91.547 Y108.638 E2.77791
G1 X92.829 Y110.867 E2.92755
G1 X93.816 Y112.396 E3.03346
G1 X94.933 Y114.041 E3.14917
G1 X96.484 Y116.218 E3.30473
G1 X97.233 Y117.09 E3.37163
G1 X97.417 Y117.213 E3.38451
G1 X97.722 Y117.491 E3.40853
G1 X98.135 Y117.996 E3.44649
G1 X98.696 Y118.607 E3.49476
G1 X99.196 Y119.19 E3.53946
G1 X99.365 Y119.318 E3.5518
G1 X99.67 Y119.627 E3.57707
G1 X100.075 Y120.237 E3.61968
G1 X102.114 Y122.09 E3.78002
G1 X102.418 Y122.333 E3.80267
G1 X104.231 Y123.667 E3.93366
G1 X105.064 Y124.194 E3.99102
G1 X106.691 Y125.122 E4.10002
G1 X107.135 Y125.337 E4.12873
G1 X108.901 Y126.088 E4.24041
G1 X109.184 Y126.189 E4.2579
G1 X111.169 Y126.755 E4.37802
G1 X113.105 Y127.078 E4.49224
G1 X115.109 Y127.184 E4.60903
G1 X117.15 Y127.049 E4.72807
G1 X117.582 Y126.989 E4.75345
G1 X119.541 Y126.583 E4.86988
G1 X119.965 Y126.457 E4.89562
G1 X121.542 Y125.92 E4.99257
G1 X121.904 Y125.769 E5.0154
G1 X123.569 Y124.989 E5.1224
G1 X123.874 Y124.823 E5.14261
G1 X125.286 Y123.979 E5.23834
G1 X125.887 Y123.589 E5.28003
G1 X127.566 Y122.345 E5.40164
G1 X127.904 Y122.075 E5.42682
G1 X129.406 Y120.72 E5.54454
G1 X130.152 Y120.006 E5.60463
G1 X131.018 Y118.922 E5.68537
G1 X131.935 Y118.062 E5.75853
G1 X132.687 Y117.256 E5.82268
G1 X133.497 Y116.223 E5.89907
G1 X134.173 Y115.282 E5.9665
G1 X134.255 Y115.063 E5.98011
G1 X134.529 Y114.579 E6.01248
G1 X134.884 Y114.139 E6.04538
G1 X135.194 Y113.858 E6.06973
G1 X136.571 Y111.789 E6.21436
G1 X136.799 Y111.207 E6.25074
G1 X137.134 Y110.726 E6.28485
G1 X137.433 Y110.406 E6.31034
G1 X138.617 Y108.338 E6.44902
G1 X139.242 Y107.203 E6.52442
G1 X139.677 Y106.169 E6.5897
G1 X140.127 Y105.203 E6.65172
G1 X140.653 Y104.218 E6.7167
G1 X140.812 Y103.59 E6.7544
G1 X141.106 Y102.933 E6.79629
G1 X142.325 Y101.332 E6.91339
G1 X142.91 Y100.844 E6.95772
G1 X143.525 Y100.547 E6.99746
G1 X144.188 Y100.404 E7.03693
G1 X145.488 Y100.425 E7.11259
G1 X146.441 Y100.692 E7.17019
G1 X147.169 Y101.193 E7.22162
G1 X147.701 Y101.872 E7.27182
G1 X147.964 Y102.525 E7.31279
G1 X148.184 Y103.862 E7.39164
G1 X148.09 Y104.531 E7.43095
G1 X147.879 Y105.149 E7.46895
G1 X147.768 Y105.545 E7.49288
G1 X147.205 Y106.822 E7.5741
G1 X146.933 Y107.248 E7.60351
G1 X146.524 Y108.065 E7.65668
G1 X145.67 Y109.551 E7.75642
G1 X145.319 Y110.259 E7.80241
G1 X144.906 Y111.032 E7.85341
G1 X143.129 Y114.139 E8.06171
G1 X142.769 Y114.686 E8.09982
G1 X142.57 Y115.035 E8.1232
G1 X140.539 Y118.069 E8.33567
G1 X139.643 Y119.298 E8.42418
G1 X138.95 Y120.333 E8.49667
G1 X138.695 Y120.626 E8.51927
G1 X137.795 Y121.801 E8.6054
G1 X137.497 Y122.093 E8.62968
G1 X137.394 Y122.275 E8.64185
G1 X137.036 Y122.728 E8.67545
G1 X136.056 Y123.762 E8.75836
G1 X135.711 Y124.154 E8.78875
G1 X134.858 Y124.911 E8.85512
G1 X134 Y125.756 E8.9252
G1 X132.194 Y127.455 E9.0695
G1 X131.473 Y128.077 E9.12491
G1 X129.697 Y129.473 E9.25637
G1 X129.174 Y129.847 E9.29379
G1 X128.077 Y130.737 E9.376
G1 X127.444 Y131.12 E9.41906
G1 X126.746 Y131.372 E9.46225
G1 X125.685 Y132.078 E9.53642
G1 X125.316 Y132.226 E9.55956
G1 X124.848 Y132.463 E9.59009
G1 X124.361 Y132.612 E9.61973
G1 X124.236 Y132.708 E9.6289
G1 X123.786 Y132.956 E9.6588
G1 X123.356 Y133.113 E9.68544
G1 X122.833 Y133.191 E9.71621
G1 X122.095 Y133.417 E9.76113
G1 X121.267 Y133.587 E9.81032
G1 X120.738 Y133.722 E9.84209
G1 X118.821 Y134.079 E9.95557
G1 X117.563 Y134.238 E10.02936
G1 X115.836 Y134.328 E10.13
G1 X115.409 Y134.466 E10.15611
G1 X114.483 Y134.523 E10.2101
G1 X114.02 Y134.44 E10.23747
G1 X113.683 Y134.309 E10.25851
G1 X112.749 Y134.257 E10.31295
G1 X111.833 Y134.177 E10.36646
G1 X111.167 Y134.078 E10.40564
G1 X109.555 Y133.786 E10.50098
G1 X108.631 Y133.56 E10.55634
G1 X106.965 Y133.045 E10.65782
G1 X106.175 Y132.756 E10.70677
G1 X104.442 Y131.987 E10.81711
G1 X103.886 Y131.71 E10.85326
G1 X102.851 Y131.293 E10.9182
G1 X102.106 Y130.854 E10.96852
G1 X101.414 Y130.247 E11.02209
G1 X101.195 Y130.1 E11.03744
G1 X100.5 Y129.758 E11.08252
G1 X100.025 Y129.441 E11.11575
G1 X99.393 Y128.933 E11.16294
G1 X98.576 Y128.12 E11.23001
G1 X98.387 Y127.959 E11.24446
G1 X97.576 Y127.436 E11.30062
G1 X96.914 Y126.814 E11.35348
G1 X95.973 Y125.728 E11.4371
G1 X95.731 Y125.487 E11.45698
G1 X95.474 Y125.235 E11.47793
G1 X94.242 Y124.157 E11.5732
G1 X93.93 Y123.798 E11.60088
G1 X93.101 Y122.623 E11.68456
G1 X92.463 Y121.966 E11.73786
G1 X91.183 Y120.531 E11.84976
G1 X90.043 Y118.882 E11.96642
G1 X89.298 Y117.843 E12.04082
G1 X87.575 Y115.257 E12.22166
G1 X87.061 Y114.68 E12.26663
G1 X86.756 Y114.122 E12.30364
G1 X86.602 Y113.662 E12.33187
G1 X85.557 Y111.861 E12.45304
G1 X84.636 Y110.094 E12.569
G1 X83.697 Y108.654 E12.66904
G1 X83.382 Y108.025 E12.70998
G1 X82.943 Y107.02 E12.7738
G1 X82.595 Y106.385 E12.81594
G1 X82.285 Y105.692 E12.86012
G1 X82.043 Y104.855 E12.91082
G1 X81.833 Y103.57 E12.98659
G1 X81.972 Y102.694 E13.03821
G1 X82.49 Y101.597 E13.10881
G1 X83.021 Y101.024 E13.15427
M204 S2500
G1 X83.388 Y101.364 F7200
M204 S2000
G1 F3000
G1 X84.052 Y100.989 E13.19865
G1 X84.655 Y100.858 E13.23456
G1 X85.739 Y100.864 E13.29764
G1 X86.405 Y101.032 E13.33761
G1 X86.78 Y101.227 E13.36221
G1 X87.089 Y101.461 E13.38477
G1 X88.348 Y102.997 E13.50035
G1 X88.749 Y103.813 E13.55326
G1 X89.011 Y104.601 E13.60159
G1 X89.044 Y104.836 E13.6154
G1 X89.556 Y105.982 E13.68844
G1 X90.115 Y106.765 E13.74443
G1 X90.35 Y107.224 E13.77444
G1 X90.587 Y107.751 E13.80807
G1 X90.673 Y107.861 E13.8162
G1 X90.867 Y108.186 E13.83823
G1 X91.088 Y108.843 E13.87857
G1 X92.402 Y111.127 E14.03191
G1 X93.399 Y112.672 E14.13892
G1 X94.523 Y114.326 E14.2553
G1 X96.09 Y116.526 E14.41249
G1 X96.902 Y117.473 E14.48509
G1 X97.1 Y117.6 E14.49878
G1 X97.348 Y117.823 E14.51819
G1 X97.757 Y118.323 E14.55578
G1 X98.325 Y118.942 E14.60467
G1 X98.854 Y119.56 E14.65201
G1 X99.024 Y119.685 E14.66429
G1 X99.296 Y119.96 E14.6868
G1 X99.692 Y120.564 E14.72883
G1 X101.789 Y122.47 E14.89374
G1 X102.113 Y122.729 E14.91788
G1 X103.949 Y124.08 E15.05054
G1 X104.807 Y124.622 E15.1096
G1 X106.458 Y125.565 E15.22025
G1 X106.928 Y125.792 E15.25062
G1 X108.719 Y126.554 E15.36389
G1 X109.032 Y126.665 E15.38322
G1 X111.059 Y127.243 E15.50588
G1 X113.051 Y127.576 E15.62341
G1 X115.097 Y127.684 E15.74264
G1 X115.411 Y127.676 E15.76092
G1 X117.203 Y127.547 E15.86548
G1 X117.668 Y127.482 E15.8928
G1 X119.663 Y127.068 E16.01137
G1 X120.116 Y126.933 E16.03888
G1 X121.719 Y126.388 E16.13741
G1 X122.106 Y126.226 E16.16183
G1 X123.794 Y125.435 E16.27031
G1 X124.121 Y125.257 E16.29198
G1 X125.551 Y124.404 E16.38888
G1 X126.172 Y123.999 E16.43203
G1 X127.871 Y122.741 E16.55506
G1 X128.228 Y122.456 E16.58164
G1 X129.746 Y121.086 E16.70064
G1 X130.521 Y120.344 E16.76308
G1 X131.397 Y119.249 E16.84469
G1 X132.289 Y118.416 E16.91572
G1 X133.067 Y117.582 E16.98209
G1 X133.897 Y116.524 E17.06035
G1 X134.622 Y115.514 E17.1327
G1 X134.703 Y115.286 E17.14678
G1 X134.932 Y114.876 E17.17411
G1 X135.259 Y114.47 E17.20445
G1 X135.574 Y114.189 E17.22902
G1 X137.019 Y112.017 E17.38084
G1 X137.227 Y111.466 E17.41511
G1 X137.533 Y111.028 E17.4462
G1 X137.837 Y110.706 E17.47197
G1 X139.053 Y108.582 E17.6144
G1 X139.692 Y107.421 E17.69152
G1 X140.136 Y106.367 E17.75808
G1 X140.577 Y105.42 E17.81887
G1 X141.123 Y104.398 E17.8863
G1 X141.278 Y103.773 E17.92377
G1 X141.55 Y103.164 E17.96258
G1 X142.704 Y101.66 E18.0729
G1 X143.203 Y101.249 E18.11052
G1 X143.663 Y101.028 E18.14022
G1 X144.211 Y100.905 E18.1729
G1 X145.446 Y100.924 E18.24478
G1 X146.214 Y101.141 E18.29122
G1 X146.805 Y101.537 E18.33262
G1 X147.253 Y102.098 E18.3744
G1 X147.476 Y102.639 E18.40845
G1 X147.684 Y103.835 E18.4791
G1 X147.609 Y104.393 E18.51186
G1 X147.402 Y105 E18.54918
G1 X147.291 Y105.393 E18.57295
G1 X146.773 Y106.57 E18.64779
G1 X146.498 Y107.001 E18.67754
G1 X146.087 Y107.822 E18.73097
G1 X145.229 Y109.316 E18.83123
G1 X144.876 Y110.027 E18.87743
G1 X144.47 Y110.787 E18.92757
G1 X142.699 Y113.884 E19.13519
G1 X142.342 Y114.425 E19.17291
G1 X142.15 Y114.765 E19.19563
G1 X140.126 Y117.787 E19.4073
G1 X139.234 Y119.011 E19.49544
G1 X138.545 Y120.04 E19.56751
G1 X138.309 Y120.308 E19.58829
G1 X137.41 Y121.481 E19.6743
G1 X137.093 Y121.787 E19.69994
G1 X136.986 Y121.984 E19.71299
G1 X136.665 Y122.393 E19.74325
G1 X135.686 Y123.426 E19.82607
G1 X135.367 Y123.791 E19.85428
G1 X134.516 Y124.546 E19.92048
G1 X133.655 Y125.394 E19.99081
G1 X131.856 Y127.087 E20.13457
G1 X131.159 Y127.687 E20.18809
G1 X129.392 Y129.076 E20.31889
G1 X128.871 Y129.45 E20.35621
G1 X127.803 Y130.319 E20.43634
G1 X127.208 Y130.678 E20.47678
G1 X126.522 Y130.921 E20.51913
G1 X125.433 Y131.646 E20.59526
G1 X125.115 Y131.768 E20.61508
G1 X124.644 Y132.006 E20.64579
G1 X124.119 Y132.162 E20.67766
G1 X123.969 Y132.284 E20.68891
G1 X123.595 Y132.493 E20.71384
G1 X123.211 Y132.633 E20.73763
G1 X122.725 Y132.701 E20.76619
G1 X121.983 Y132.929 E20.81136
G1 X121.155 Y133.1 E20.86056
G1 X120.639 Y133.232 E20.89156
G1 X118.737 Y133.586 E21.00415
G1 X117.528 Y133.74 E21.07508
G1 X115.737 Y133.832 E21.17944
G1 X115.338 Y133.97 E21.20401
G1 X114.54 Y134.026 E21.25056
G1 X114.136 Y133.953 E21.27445
G1 X113.796 Y133.815 E21.2958
G1 X112.789 Y133.759 E21.35449
G1 X111.884 Y133.68 E21.40736
G1 X111.245 Y133.584 E21.44496
G1 X109.652 Y133.296 E21.53917
G1 X108.772 Y133.08 E21.5919
G1 X107.119 Y132.569 E21.69259
G1 X106.37 Y132.295 E21.739
G1 X104.65 Y131.532 E21.8485
G1 X104.091 Y131.254 E21.88483
G1 X103.056 Y130.836 E21.94979
G1 X102.382 Y130.437 E21.99537
G1 X101.721 Y129.851 E22.04678
G1 X101.446 Y129.666 E22.06607
G1 X100.763 Y129.333 E22.11029
G1 X100.329 Y129.043 E22.14067
G1 X99.736 Y128.569 E22.18485
G1 X98.915 Y127.752 E22.25225
G1 X98.685 Y127.556 E22.26984
G1 X97.901 Y127.056 E22.32395
G1 X97.266 Y126.459 E22.37467
G1 X96.339 Y125.387 E22.45715
G1 X96.083 Y125.132 E22.47818
G1 X95.813 Y124.868 E22.50016
G1 X94.607 Y123.815 E22.59333
G1 X94.331 Y123.499 E22.61775
G1 X93.486 Y122.303 E22.70297
G1 X92.832 Y121.629 E22.75762
G1 X91.567 Y120.21 E22.86825
G1 X90.452 Y118.594 E22.98251
G1 X89.712 Y117.562 E23.05641
G1 X87.97 Y114.948 E23.23922
G1 X87.485 Y114.414 E23.2812
G1 X87.206 Y113.904 E23.31503
G1 X87.061 Y113.459 E23.34227
G1 X85.993 Y111.615 E23.46628
G1 X85.068 Y109.841 E23.58271
G1 X84.138 Y108.417 E23.68169
G1 X83.838 Y107.818 E23.72068
G1 X83.392 Y106.799 E23.78541
G1 X83.047 Y106.171 E23.82711
G1 X82.749 Y105.505 E23.86957
G1 X82.527 Y104.73 E23.91648
G1 X82.334 Y103.602 E23.98308
G1 X82.442 Y102.869 E24.0262
G1 X82.884 Y101.907 E24.08781
G1 X83.347 Y101.408 E24.12742
M204 S2500
G1 X83.686 Y101.762 F7200
M204 S2000
G1 F3000
G1 X84.202 Y101.467 E24.16201
G1 X84.682 Y101.358 E24.19065
G1 X85.706 Y101.364 E24.25024
G1 X86.204 Y101.49 E24.28013
G1 X86.497 Y101.64 E24.29929
G1 X86.762 Y101.84 E24.31861
G1 X87.599 Y102.891 E24.3968
G1 X87.947 Y103.297 E24.42792
G1 X88.28 Y103.986 E24.47245
G1 X88.528 Y104.732 E24.5182
G1 X88.555 Y104.968 E24.53202
G1 X89.121 Y106.232 E24.61262
G1 X89.678 Y107.01 E24.6683
G1 X89.902 Y107.446 E24.69683
G1 X90.159 Y108.019 E24.73338
G1 X90.255 Y108.136 E24.74219
G1 X90.423 Y108.418 E24.76129
G1 X90.628 Y109.047 E24.79979
G1 X91.975 Y111.388 E24.95697
G1 X92.983 Y112.948 E25.06506
G1 X94.112 Y114.612 E25.18208
G1 X95.696 Y116.834 E25.34088
G1 X96.574 Y117.858 E25.41938
G1 X96.787 Y117.991 E25.43399
G1 X96.975 Y118.156 E25.44855
G1 X97.38 Y118.651 E25.48577
G1 X97.954 Y119.277 E25.5352
G1 X98.516 Y119.934 E25.58551
G1 X98.686 Y120.054 E25.59762
G1 X98.922 Y120.292 E25.61713
G1 X99.306 Y120.889 E25.65844
G1 X101.465 Y122.85 E25.82817
G1 X101.809 Y123.126 E25.85384
G1 X103.667 Y124.493 E25.98808
G1 X104.549 Y125.051 E26.04882
G1 X106.226 Y126.008 E26.16119
G1 X106.721 Y126.247 E26.19318
G1 X108.537 Y127.02 E26.30804
G1 X108.879 Y127.142 E26.32917
G1 X110.949 Y127.731 E26.45442
G1 X112.996 Y128.073 E26.5752
G1 X115.09 Y128.184 E26.69723
G1 X115.435 Y128.176 E26.71731
G1 X117.256 Y128.044 E26.82356
G1 X117.753 Y127.975 E26.85276
G1 X119.785 Y127.553 E26.97354
G1 X120.268 Y127.41 E27.00285
G1 X121.896 Y126.856 E27.10293
G1 X122.309 Y126.683 E27.12899
G1 X124.02 Y125.881 E27.23896
G1 X124.369 Y125.692 E27.26206
G1 X125.815 Y124.828 E27.36009
G1 X126.458 Y124.41 E27.40472
G1 X128.176 Y123.137 E27.52915
G1 X128.551 Y122.837 E27.5571
G1 X130.086 Y121.453 E27.67738
G1 X130.892 Y120.682 E27.74229
G1 X131.752 Y119.601 E27.82268
G1 X132.642 Y118.769 E27.89358
G1 X133.447 Y117.907 E27.96222
G1 X134.297 Y116.824 E28.04234
G1 X135.073 Y115.744 E28.11973
G1 X135.154 Y115.504 E28.13447
G1 X135.335 Y115.172 E28.15648
G1 X135.634 Y114.801 E28.18421
G1 X135.953 Y114.522 E28.20887
G1 X137.47 Y112.242 E28.36824
G1 X137.657 Y111.724 E28.40029
G1 X137.932 Y111.33 E28.42825
G1 X138.24 Y111.008 E28.45418
G1 X139.489 Y108.827 E28.60044
G1 X140.143 Y107.639 E28.67936
G1 X140.595 Y106.565 E28.74717
G1 X141.027 Y105.638 E28.80669
G1 X141.595 Y104.576 E28.87678
G1 X141.744 Y103.956 E28.91389
G1 X141.994 Y103.396 E28.94958
G1 X143.08 Y101.991 E29.05292
G1 X143.491 Y101.659 E29.08367
G1 X143.849 Y101.493 E29.10663
G1 X144.233 Y101.405 E29.12956
G1 X145.407 Y101.423 E29.19789
G1 X145.976 Y101.582 E29.23227
G1 X146.446 Y101.887 E29.26488
G1 X146.808 Y102.328 E29.29808
G1 X146.99 Y102.758 E29.32525
G1 X147.183 Y103.813 E29.38766
G1 X147.127 Y104.257 E29.4137
G1 X146.924 Y104.852 E29.45029
G1 X146.815 Y105.241 E29.4738
G1 X146.324 Y106.349 E29.54433
G1 X146.063 Y106.752 E29.57227
G1 X145.65 Y107.579 E29.62606
G1 X144.788 Y109.08 E29.72679
G1 X144.434 Y109.795 E29.77322
G1 X144.034 Y110.542 E29.82253
G1 X142.269 Y113.629 E30.02947
G1 X141.915 Y114.164 E30.0668
G1 X141.729 Y114.495 E30.0889
G1 X139.714 Y117.505 E30.29969
G1 X138.824 Y118.725 E30.38757
G1 X138.139 Y119.747 E30.45917
G1 X137.924 Y119.988 E30.47796
G1 X137.025 Y121.161 E30.56397
G1 X136.685 Y121.485 E30.5913
G1 X136.576 Y121.697 E30.60517
G1 X136.294 Y122.058 E30.63183
